X: 1
T: Traditional Cape Breton Jig in D
C: unknown
R: jig
S: Fiddle Hell Online 2022-4-7 handout for Andrea Beaton workshop
Z: 2022 John Chambers <jc:trillian.mit.edu>
M: 6/8
L: 1/8
K: D
e |\
f2g fed | ABA AFA | fgf fed | a3 a2f |\
gag gfe | fgf fed | efe dcB | A3 A2 :|
|: B |\
AFA dAF | A3  A2F | GFG BAF | E3 E2A |\
 e3 e3d | c3  c2B | ABA ABc | d3 d2 :|
